X: 37205
T: Sir Wilfred Laurier
R: reel
M: 4/4
K: Amajor
EF/G/|A2Ac Bc/B/ AB|ceAf e2fg|afge (3fga ec|dBcA BAFE|
AEAc Bc/B/ AB|ceAf e2fg|afge (3fga ec|1 (3cBA GB A2:|2 (3cBA GB AFEC||
|:A,2 CE FAEC|A,ECE A3B|cABG AFGE|(3FED EC DCB,C|
A,2 CE FAEC|A,ECE A3B|cABG AFGE|1 DC (3B,CB, A,=GA,=G,:|2 DC (3B,CB, A,2||

